dist/svgs/carbon-icons/svg/functions.svg

<svg xmlns="http://www.w3.org/2000/svg" viewBox="0 0 25 25"><path d="M14.3 24c-.2 0-.5-.2-.5-.4 0-.3.1-.5.4-.6 2.2-.4 4.2-1.4 5.8-3 4.1-4.1 4.2-10.6.4-14.9-.2-.2-.2-.5 0-.7.2-.2.5-.2.7 0 4.2 4.7 4 11.8-.5 16.2-1.6 1.8-3.8 3-6.3 3.4zM3.9 20.4c-.1 0-.3-.1-.4-.2C-.7 15.5-.5 8.4 4 4 5.8 2.2 8 1.1 10.5.7c.3 0 .5.1.6.4 0 .3-.1.5-.4.6-2.3.4-4.3 1.4-5.9 3-4.2 4-4.4 10.6-.6 14.8.2.2.2.5 0 .7-.1.1-.2.2-.3.2z"/><path d="M6.7 24.2c-.6 0-.9-.1-1-.1-.4-.1-.9-.4-.8-1.2.1-.8.5-1 1-1 2.6 0 3-2.8 3-9.3L6.2 12c-.9-.2-.9-1-.9-1.3 0-.4 0-1.2.9-1.4l2.9-.6C9.6 6 10.6 4 12.2 2.6 14.3.8 16.7.5 17.9.5c.6 0 1 .1 1 .1.5.1.8.5.7 1.2 0 .3-.1 1-.9 1-2 0-2.8 1.6-3 6l2.3.5c.9.2.9 1 .9 1.4 0 .4 0 1.2-.9 1.4l-2.4.5c0 4.4-1.1 7.6-3.4 9.6-1.8 1.7-4.3 2-5.5 2zM6 23.1c.5 0 3.4.3 5.8-1.8 2.1-1.8 3.1-4.9 3.1-9v-.6L18 11c.1-.1.1-.3.1-.4v-.4l-3.2-.6v-.4c.1-3.7.5-7.3 3.8-7.4v-.2H18c-1.1 0-3.3.2-5.1 1.8-1.5 1.3-2.5 3.3-2.9 5.9v.2l-3.6.8c-.1 0-.1.3-.1.4v.4l3.5.7v.8c0 5.2 0 10.2-4 10.3v.1c.1.1.1.1.2.1-.1 0-.1 0 0 0z"/></svg>

<svg width="25px" height="25px" viewBox="0 0 25 25" version="1.1"
  xmlns="http://www.w3.org/2000/svg"
  xmlns:xlink="http://www.w3.org/1999/xlink" fill-rule="nonzero" fill="#000000">
  <!-- Generator: Sketch 43.2 (39069) - http://www.bohemiancoding.com/sketch -->
  <desc>Created with Sketch.</desc>
  <defs></defs>
  <path d="M14.3,24 C14.1,24 13.8,23.8 13.8,23.6 C13.8,23.3 13.9,23.1 14.2,23 C16.4,22.6 18.4,21.6 20,20 C24.1,15.9 24.2,9.4 20.4,5.1 C20.2,4.9 20.2,4.6 20.4,4.4 C20.6,4.2 20.9,4.2 21.1,4.4 C25.3,9.1 25.1,16.2 20.6,20.6 C19,22.4 16.8,23.6 14.3,24 L14.3,24 Z" id="Shape"></path>
  <path d="M3.9,20.4 C3.8,20.4 3.6,20.3 3.5,20.2 C-0.7,15.5 -0.5,8.4 4,4 C5.8,2.2 8,1.1 10.5,0.7 C10.8,0.7 11,0.8 11.1,1.1 C11.1,1.4 11,1.6 10.7,1.7 C8.4,2.1 6.4,3.1 4.8,4.7 C0.6,8.7 0.4,15.3 4.2,19.5 C4.4,19.7 4.4,20 4.2,20.2 C4.1,20.3 4,20.4 3.9,20.4 Z" id="Shape"></path>
  <path d="M6.7,24.2 C6.1,24.2 5.8,24.1 5.7,24.1 C5.3,24 4.8,23.7 4.9,22.9 C5,22.1 5.4,21.9 5.9,21.9 C8.5,21.9 8.9,19.1 8.9,12.6 L8.9,12.6 L6.2,12 C5.3,11.8 5.3,11 5.3,10.7 C5.3,10.3 5.3,9.5 6.2,9.3 L9.1,8.7 C9.6,6 10.6,4 12.2,2.6 C14.3,0.8 16.7,0.5 17.9,0.5 C18.5,0.5 18.9,0.6 18.9,0.6 C19.4,0.7 19.7,1.1 19.6,1.8 C19.6,2.1 19.5,2.8 18.7,2.8 C16.7,2.8 15.9,4.4 15.7,8.8 L18,9.3 C18.9,9.5 18.9,10.3 18.9,10.7 C18.9,11.1 18.9,11.9 18,12.1 L15.6,12.6 C15.6,17 14.5,20.2 12.2,22.2 C10.4,23.9 7.9,24.2 6.7,24.2 Z M6,23.1 C6.5,23.1 9.4,23.4 11.8,21.3 C13.9,19.5 14.9,16.4 14.9,12.3 L14.9,11.7 L18,11 C18.1,10.9 18.1,10.7 18.1,10.6 L18.1,10.2 L14.9,9.6 L14.9,9.2 C15,5.5 15.4,1.9 18.7,1.8 L18.7,1.7 L18.7,1.6 L18,1.6 C16.9,1.6 14.7,1.8 12.9,3.4 C11.4,4.7 10.4,6.7 10,9.3 L10,9.5 L6.4,10.3 C6.3,10.3 6.3,10.6 6.3,10.7 L6.3,11.1 L9.8,11.8 L9.8,12.6 C9.8,17.8 9.8,22.8 5.8,22.9 L5.8,23 C5.9,23.1 5.9,23.1 6,23.1 C5.9,23.1 5.9,23.1 6,23.1 Z" id="Shape"></path>
</svg>
